src/media/logo.svg

<svg viewBox="0 0 135 46" fill="none" xmlns="http://www.w3.org/2000/svg">
<path d="M48.5469 11.6562V34H45.6562V11.6562H48.5469ZM64.2656 11.6562L54.2031 22.2031L64.4844 34H60.4688L51.3594 23.25V21.5L60.6094 11.6562H64.2656ZM67.2188 33.2188V30.5625C69.5625 31.3958 72.0938 31.8125 74.8125 31.8125C78.6562 31.8125 80.5781 30.4062 80.5781 27.5938C80.5781 25.1979 79.1615 24 76.3281 24H73.4531C68.776 24 66.4375 21.9688 66.4375 17.9062C66.4375 13.6354 69.4323 11.5 75.4219 11.5C78.026 11.5 80.4479 11.8125 82.6875 12.4375V15.0938C80.4479 14.2604 78.026 13.8438 75.4219 13.8438C71.3594 13.8438 69.3281 15.1979 69.3281 17.9062C69.3281 20.3021 70.7031 21.5 73.4531 21.5H76.3281C81.0885 21.5 83.4688 23.5312 83.4688 27.5938C83.4688 31.9688 80.5833 34.1562 74.8125 34.1562C72.0938 34.1562 69.5625 33.8438 67.2188 33.2188ZM89.9531 22.7656C89.9531 28.7969 92.6771 31.8125 98.125 31.8125C103.458 31.8125 106.125 28.7969 106.125 22.7656C106.125 16.8177 103.458 13.8438 98.125 13.8438C92.6771 13.8438 89.9531 16.8177 89.9531 22.7656ZM86.9062 22.8594C86.9062 15.2865 90.6458 11.5 98.125 11.5C105.49 11.5 109.172 15.2865 109.172 22.8594C109.172 30.3906 105.49 34.1562 98.125 34.1562C90.6458 34.1562 86.9062 30.3906 86.9062 22.8594ZM120.25 22.8281L111.453 11.6562H114.969L122 20.5938L129.031 11.6562H132.547L123.766 22.8281L132.547 34H129.031L122 25.0625L114.969 34H111.453L120.25 22.8281Z" fill="white"/>
<g clip-path="url(#clip0_4_8)">
<path fill-rule="evenodd" clip-rule="evenodd" d="M35.9998 28.2682V7.06383L20.0131 0.790224L17.9998 0L15.9864 0.790224L-0.000216499 7.06383V28.2682C-0.000216499 28.2682 -0.328198 36.6844 9.16377 41.3807C9.49825 41.5478 9.83273 41.7148 10.164 41.8786C12.9502 43.276 15.626 44.699 17.9998 46C20.3736 44.699 23.0494 43.2792 25.8356 41.8786C26.1668 41.7116 26.5013 41.5446 26.8358 41.3807C36.3278 36.6844 35.9998 28.2682 35.9998 28.2682ZM25.4687 38.692L24.4393 39.2028C22.3772 40.2372 20.2047 41.3807 17.9998 42.5725C15.7916 41.3807 13.6224 40.2404 11.5603 39.206L10.5277 38.692C3.24063 35.0879 3.07501 29.0006 3.07501 28.4577C3.07501 28.4448 3.07501 28.3645 3.07501 28.3645C3.07501 28.3645 3.07501 12.6564 3.07501 9.08115C6.24766 7.83478 17.1815 3.54637 17.1815 3.54637C17.1815 3.54637 17.6069 3.37933 17.9998 3.22514C18.3927 3.37933 29.7519 7.83799 32.9246 9.08115C32.9246 12.6596 32.9246 28.342 32.9246 28.342C32.9246 28.342 32.9246 28.448 32.9246 28.4609C32.9246 28.9973 32.7589 35.0879 25.4687 38.692Z" fill="#1F50FF"/>
<path fill-rule="evenodd" clip-rule="evenodd" d="M9.84595 25.1779L9.91089 25.2101L17.9675 29.1483L26.1573 25.1458L18.0325 37.1823L9.84595 25.1779Z" fill="#1F50FF"/>
<path fill-rule="evenodd" clip-rule="evenodd" d="M26.1573 20.8221L26.0891 20.79L18.0325 16.8517L9.84595 20.8542L17.9675 8.81775L26.1573 20.8221Z" fill="#1F50FF"/>
<path fill-rule="evenodd" clip-rule="evenodd" d="M18 18.9654L9.85889 22.9518L18 26.9383L26.141 22.9518L18 18.9654Z" fill="#1F50FF"/>
</g>
<defs>
<clipPath id="clip0_4_8">
<rect width="36" height="46" fill="white"/>
</clipPath>
</defs>
</svg>

<svg xmlns="http://www.w3.org/2000/svg" fill="none" viewBox="0 0 135 46">
    <path fill="#fff"
        d="M48.547 11.656V34h-2.89V11.656h2.89Zm15.719 0L54.203 22.203 64.484 34H60.47l-9.11-10.75V21.5l9.25-9.844h3.657Zm2.953 21.563v-2.657c2.344.834 4.875 1.25 7.594 1.25 3.843 0 5.765-1.406 5.765-4.218 0-2.396-1.416-3.594-4.25-3.594h-2.875c-4.677 0-7.016-2.031-7.016-6.094 0-4.27 2.995-6.406 8.985-6.406 2.604 0 5.026.313 7.266.938v2.656c-2.24-.834-4.662-1.25-7.266-1.25-4.063 0-6.094 1.354-6.094 4.062 0 2.396 1.375 3.594 4.125 3.594h2.875c4.76 0 7.14 2.031 7.14 6.094 0 4.375-2.885 6.562-8.656 6.562-2.718 0-5.25-.312-7.593-.937Zm22.734-10.453c0 6.03 2.724 9.047 8.172 9.047 5.333 0 8-3.016 8-9.047 0-5.948-2.667-8.922-8-8.922-5.448 0-8.172 2.974-8.172 8.922Zm-3.047.093c0-7.573 3.74-11.359 11.219-11.359 7.365 0 11.047 3.787 11.047 11.36 0 7.53-3.682 11.296-11.047 11.296-7.48 0-11.219-3.765-11.219-11.297Zm33.344-.03-8.797-11.173h3.516L122 20.594l7.031-8.938h3.516l-8.781 11.172L132.547 34h-3.516L122 25.062 114.969 34h-3.516l8.797-11.172Z" />
    <g fill="#1F50FF" fill-rule="evenodd" clip-path="url(#a)" clip-rule="evenodd">
        <path
            d="M36 28.268V7.064L20.013.79 18 0l-2.014.79L0 7.064v21.204s-.328 8.416 9.164 13.113l1 .498A244.702 244.702 0 0 1 18 46a252.74 252.74 0 0 1 7.836-4.121c.33-.167.665-.334 1-.498C36.328 36.684 36 28.268 36 28.268ZM25.469 38.692l-1.03.51a240.28 240.28 0 0 0-6.44 3.37 245.032 245.032 0 0 0-6.439-3.366l-1.032-.514c-7.287-3.604-7.453-9.691-7.453-10.234V9.08l14.107-5.535.818-.32c.393.153 11.752 4.612 14.925 5.855v19.38c0 .536-.166 6.627-7.456 10.231Z" />
        <path
            d="m9.846 25.178.065.032 8.057 3.938 8.19-4.002-8.126 12.036-8.186-12.004Zm16.311-4.356-.068-.032-8.056-3.938-8.187 4.002 8.122-12.036 8.19 12.004Z" />
        <path d="m18 18.965-8.141 3.987L18 26.938l8.141-3.986L18 18.965Z" />
    </g>
    <defs>
        <clipPath id="a">
            <path fill="#fff" d="M0 0h36v46H0z" />
        </clipPath>
    </defs>
</svg>
